X:283
T:Music in the Glen (G)
M:4/4
L:1/8
C:Trad
R:Reel
K:G
|:"G"G2BG "C"E2DC|"G"B,DGB "G/B"AGAB|"C"c2ec "G"B2dB|"C"cA"G"BG "D"AGEF|
"G"GABG "C"E2DC|"G"B,DGB "G/B"AGAB|"C"cdef "G"gfge|
1 "D"dcBA "G"G2"D"D2:|2 "D"dcBA "G"G3A||
|:"G"B2dB eBdB |"C" cABG AGEG | "G"B3d "Am"edef | "G/B"gdBG "D"A2GA|
"G"B2dB eBfB | "Em"g2fg "D"afdf | "Em"ge"D"fd "C"e2"G"dB|:
1 "C"cA"G"BG "D"AGFG:|2 "C"cA"G"BG "D"A2F2||
